X:194
M:6/8
L:1/8
K:G
|: B3 B3 | BAB c3 | B2c d2c | B2A G2D | B3 B3 | BAB c3 | B2c d2c | BcA G3 :|

